!!!!SEGMENT: sonata11-2.krn
!!!COM: Beethoven, Ludwig van
!!!CDT: 1770///-1827///
!!!OTL: Piano Sonata no. 11 in B-flat major
!!!OPS: 22
!!!OMV: 2
!!!OMD: Adagio
**kern	**kern	**dynam
*staff2	*staff1	*staff1/2
*Ipiano	*Ipiano	*Ipiano
*clefF4	*clefG2	*
*k[b-e-a-]	*k[b-e-a-]	*
*E-:	*E-:	*
*M9/8	*M9/8	*
*MM60	*MM60	*
=1-	=1-	=1-
!	!LO:TX:i:a:t=con molto espressione	!
!	!	!LO:DY:b=2:rj
8E-' 8G' (8B-'L	4r	pp
8E-' 8G' 8B-'	.	.
8E-' 8G' 8B-'J)	8r	.
8E-' 8G' (8B-'L	4r	.
8E-' 8G' 8B-'	.	.
8E-' 8G' 8B-'J)	8r	.
8E-' 8G' (8B-'L	(8gL	pp
.	(<a-8q	.
8E-' 8G' 8B-'	16gL)	.
.	16f	.
8E-' 8G' 8B-'J)	16g	.
.	16a-JJ)	.
=2	=2	=2
8E- 8G 8B-L	(4.an\	.
8E- 8G 8B-	.	.
8E- 8G 8B-J	.	.
8E- 8G 8B-L	[4.b-)	.
8E- 8G 8B-	.	.
8E- 8G 8B-J	.	.
8E- 8G 8B-L	(8b-L<]	.
.	(<cc8q	.
8E- 8G 8B-	16b-L)	.
.	16an	.
8E- 8G 8B-J	16b-	.
.	16bnJJ)	.
=3	=3	=3
8D 8A- 8B-L	(4bnSsS	.
8D 8A- 8B-	.	.
8D 8A- 8B-J	16.ddLL	.
.	32ccJJk)	.
8D 8A- 8B-L	[4.f	.
8D 8A- 8B-	.	.
8D 8A- 8B-J	.	.
8D 8A- 8B-L	(8fL]	.
.	(<g8q	.
8D 8A- 8B-	16fL)	.
.	16en	.
8D 8A- 8B-J	16f	.
.	16gJJ)	.
!!LO:LB:g=original
=4	=4	=4
8D 8F 8A- 8B-L	[4.a-	.
8D 8F 8A- 8B-	.	.
8D 8F 8A- 8B-J	.	.
8D 8F 8A- 8B-L	(16a-LL]	.
.	16g	.
8D 8F 8A- 8B-	16f	.
.	16en	.
8D 8F 8A- 8B-J	16f	.
.	16gJJ	.
8D 8F 8A- 8B-L	16a-LL>	.
.	16b-X	.
8D 8F 8A- 8B-	16cc	.
.	16bn	.
8D 8F 8A- 8B-J	16cc	.
.	16a-JJ)	.
=5	=5	=5
8E- 8A- 8B-L	(4.f#	.
8E- 8A- 8B-	.	.
8E- 8A- 8B-J	.	.
8E- 8G 8B-L	[4.g)	.
8E- 8G 8B-	.	.
8E- 8G 8B-J	.	.
(8E-L	(16gLL>]	.
.	16e-	.
8BB-	16g	.
.	16b-	.
8AA-J)	16ee-	.
.	16ggJJ)	.
=6	=6	=6
8GGL	[4.bb-	<
8GG 8BB- 8E-	.	.
8GG 8BB- 8E-J	.	.
8GG 8BB- 8E-L	(8bb-L]	.
8GG 8BB- 8E-	8gg	.
8GG 8BB- 8E-J	8ee-J	.
8GG 8BB- 8E-L	8b-L	.
8GG 8BB- 8E-	8g	.
8GG 8BB- 8E-J	8e-J)	.
!!LO:LB:g=original
=7	=7	=7
8AA- 8C 8E-L	4.c	.
8AA- 8C 8E-	.	.
8AA- 8C 8E-J	.	.
8AA- 8C 8EnL	[4.ccc	sf
8AA- 8C 8E	.	.
8AA- 8C 8EJ	.	.
8AA- 8C 8FL	(8cccL]	.
8AA- 8C 8F	16bb-L	.
.	16aa-	.
8AA- 8C 8FJ	16gg	.
.	16ffJJ)	.
=8	=8	=8
8BB- 8E- 8GL	(8ff	.
8BB- 8E- 8G	[4ee-)	.
8BB- 8E- 8GJ	.	.
8BB- 8E- 8GL	8ee-L]	.
8BB- 8E- 8G	(8ee-'	.
8BB- 8E- 8GJ	8ee-'J)	.
8BB- 8F 8A-L	(8ee-TL	>
.	(<16dd8qLL	.
.	16ee-8qJJ	.
8BB- 8F 8A-	8ff)	.
8BB- 8F 8A-J	8ddJ)	.
=9	=9	=9
4E- 4G	(8ee-L	p
.	8b-)	.
8r	8b-'J	.
4r	(8b-L	.
.	8cc	.
8r	8a-J)	.
*^	*^	*
(4B-	4.BB-	(8gL	4e-	.
.	.	8a-	.	.
8A-)	.	8fJ)	8d	.
*	*	*v	*v	*
!!LO:LB:g=original
=10	=10	=10	=10
4G	4E-	(8e-L	.
.	.	8B-)	.
*v	*v	*	*
8r	8B-'J	.
4r	(8B-TL	.
.	(<16qAnLL	.
.	16qB-JJ	.
.	8c)	.
8r	8A-J)	.
*	*clefF4	*
*	*^	*
4BBB- (>4BB-	(8GLt	4E-	.
.	(<F16qLL	.	.
.	G16qJJ	.	.
.	8A-)	.	.
8AA-	8FJ)	8D	.
*	*v	*v	*
=11	=11	=11
(4EE- 4GG)	(4E-	.
8BBB- 8AA-	8D 8F	sf
4EE- 4GG	4E-	.
8BBB- 8AA-	8D 8F	sf
4EE- 4GG	4E-	.
8BBB-) 8AA-	8D 8F 8B-)	sf
=12	=12	=12
[4.EE- (>4.AA-	4.D 4.F (4.B-	pp
4EE-] 4GG)	4E-)	.
8r	8r	.
*	*clefG2	*
=||	=||	=||
4r	(8GL	p
.	8B-	.
8r	8e-J)	.
=13	=13	=13
(8EE-L	[4.G [4.B- [4.e- [4.g	.
8GG	.	.
8BB-J	.	.
8E-L	8G] 8B-] 8e-] 8gL]	.
8G	(>8B-'> 8e-'> 8g'>	.
8B-J	8e-'> 8g'>J)	.
4BB- 4B-	((8e- 8gtL	.
.	(<16qfL	.
.	16qgJ	.
.	8f 8a-)	.
8BB- 8A-)	8B- 8d 8fJ))	.
!!LO:LB:g=original
=14	=14	=14
[4.E- (4.A-	[4.B- 4.d (>4.f	.
4E-] 4G)	4B-] 4e-)	.
8r	8r	.
4r	(8G 8B-L	.
.	8B- 8e-	.
8r	8e-) 8gJ	.
=15	=15	=15
*	*^	*
(8EE-L	[4.b-	[4.g	<
8GG	.	.	.
8BB-J	.	.	.
8E-L	8b-LN_<	4.g_	.
8G	(8ee-'	.	.
8B-J	8ee-'J	.	.
8e-L	8ee-'L	8g] 8b-N]L	.
8c	8ee-'	8g- 8an	.
8B-J)	8ee-'J)	8g- 8b-J	.
=16	=16	=16	=16
(4.An	4.cc 4.ee-	(4g-	sf
.	.	8f)	.
4.A	8r	8r	.
.	4cc 4ee-	(8g-L	>
.	.	8fJ)	.
4.B-	8r	8r	.
.	4b- 4dd-	(8g-L	.
.	.	8fJ)	.
=17	=17	=17	=17
4.E-	8r	8r	.
.	(8dd-L	4e- 4g-	.
.	8cc-J)	.	.
4.En	8r	8r	.
.	(8cc-L	4d- 4gn	.
.	8b-J)	.	.
4.F)	8r	8r	.
.	(8b-L	4cn 4e-X	.
.	8anJ)	.	.
!!LO:LB:g=original
=18	=18	=18	=18
*^	*	*	*
8BBB-L	[2.BBB-	4b-	4dn	.
8BB-	.	.	.	.
*	*	*v	*v	*
8BB-J	.	8r	.
8BB-L	.	4r	.
8BB-	.	.	.
8BB-J	.	8r	.
8BB-L	4.BBB-]	(4ddn	.
8BB-	.	.	.
8BB-J	.	16ccLL	.
.	.	16b-JJ)	.
=19	=19	=19	=19
*	*	*^	*
(<4c>	8BB-L	8e- (>8b-L	4ryy	.
.	8BB-	8an	.	.
16B-LL	8BB-J	16gL	8e-	.
16AnJJ)	.	16fJJ	.	.
(4A	8BB-L	[4.f)	[4.e-	.
.	8BB-	.	.	.
16GLL	8BB-J	.	.	.
16FJJ)	.	.	.	.
(8.FL	8BB-L	(8fL]	4.e-]	.
.	8BB-	8g	.	.
16E-L	.	.	.	.
16D	8BB-J	8aJ)	.	.
16E-JJ)	.	.	.	.
*	*	*v	*v	*
=20	=20	=20	=20
4D	8BB-L	(8b-SSsL	.
.	8BB-	16b-L	.
.	.	16cc	.
8r	8BB-J	16dd	.
.	.	16ee-JJ)	.
.	.	dd8q	.
4.ryy	8BB-L<	(4.ff	.
.	8BB-	.	.
.	8BB-J	.	.
4.ryy	8BB-L<	16eenLL	.
.	.	16ff	.
.	8BB-	16gg	.
.	.	16ff	.
.	8BB-J	16ee-	.
.	.	16ddJJ)	.
!!LO:LB:g=original
=21	=21	=21	=21
*	*	*^	*
4.ryy	8BB-L	(8ddL	(4e- 4g	.
.	8BB-	8cc	.	.
.	8BB-J	16b-L	16d 16fLL	.
.	.	16anJJ)	16c) 16e-JJ	.
4ryy	8BB-L	(4a	N(4c 4e-	.
.	8BB-	.	.	.
16B-LL	8BB-J	16gLL	8e-	.
16AnJJN)	.	16fJJ)	.	.
(16ALL	8BB-L	(8fL	4.e-	.
16G	.	.	.	.
16F	8BB-	8g	.	.
16E-	.	.	.	.
16D	8BB-J	8aJ)	.	.
16CJJ	.	.	.	.
*v	*v	*	*	*
*	*v	*v	*
=22	=22	=22
4BB-)	8d 8b-	.
.	(8cc#L	p
8r	8ddJ)	.
4D 4F 4B-	8r	.
.	(8eenL	.
*clefG2	*	*
8r	8ffJ)	.
4d 4f 4b-	8r	.
.	(8aanL	.
8r	8bb-J)	.
=23	=23	=23
4e- 4g 4b-	8r	.
.	(8ff#L	.
*clefF4	*	*
8r	8ggJ)	.
4G 4B- 4e-	8r	.
.	(8ddL	.
8r	8ee-J)	.
4En 4B- 4c	8r	.
.	(8bnL	.
8r	8ccJ)	.
!!LO:LB:g=original
=24	=24	=24
*^	*	*
8FL	2.F	8r	.
8B- 8d	.	[4ff	<
8B- 8dJ	.	.	.
8B- 8dL	.	(16ffLL]	.
.	.	32ggL	.
.	.	32aan	.
8B- 8d	.	32bb-	.
.	.	32ccc	.
.	.	32ddd	.
.	.	32eee-JJ)	.
8B- 8dJ	.	[8fffJ	sf
8An 8e-L	4.F	(8fffL]	>
8A 8e-	.	8eee-	.
8A 8e-J	.	8cccJ)	]]
=25	=25	=25	=25
4d	4B-	[8bb-L	p
.	.	(32bb-LL]	.
.	.	32aan	.
.	.	32ddd	.
.	.	32ccc	.
*v	*v	*	*
8r	32bb-	.
.	32aa	.
.	32gg	.
.	32ffJJJ	.
4r	32eenLLL	.
.	32ff	.
.	32bb-	.
.	32aaJJ	.
.	32ggLL	.
.	32ff	.
.	32ee-	.
.	32ddJJ	.
8r	32cc#LL	.
.	32dd	.
.	32gg	.
.	32ffJJJ	.
4r	32ee-LLL	.
.	32dd	.
.	32ccn	.
.	32b-JJ	.
.	32anLL	.
.	32b-	.
.	32ee-	.
.	32ddJJ	.
8r	32ccLL	.
.	32b-	.
.	32a	.
.	32gJJJ	.
!!LO:LB:g=original
=26	=26	=26
*^	*	*
*	*	*Xbrackettup	*
8FFL	2.FF	32enLLL<	<
.	.	32f	.
.	.	32f#	.
.	.	32gJJ	.
8BB- 8D	.	32a-XLL	.
.	.	32an	.
.	.	32b-	.
.	.	32bnJJ	.
8BB- 8DJ	.	32ccLL	.
.	.	32cc#	.
.	.	32dd	.
.	.	32ee-JJJ	.
8BB- 8DL	.	32eenLLL	.
.	.	32ff	.
.	.	32ff#	.
.	.	32ggJJ	.
8BB- 8D	.	32aa-XLL	.
.	.	32aan	.
.	.	32bb-X	.
.	.	32bbnJJ	.
8BB- 8DJ	.	(40cccnLL	.
.	.	40ccc#	.
.	.	40ddd	.
.	.	40eee-X	.
.	.	40eeenJJJ))	.
8AAn 8E-L	4.FF	[8fffL	sf >
8C 8E-	.	(32fffLL]	.
.	.	32eee-	.
.	.	32cccn	.
.	.	32aanJJ	.
8C 8E-J	.	32ff#LL	.
.	.	32ee-	.
.	.	32cc#	.
.	.	32anJJJ)	]]
*v	*v	*	*
=27	=27	=27
(8BB-L	4b-	p
8D	.	.
8FJ	8r	.
8B-L	4r	.
8d	.	.
*	*^	*
!	!	!	!LO:DY:rj
8enJ	[8cc#	[8b-	sf
4f)	(8cc#]L	4b-]	.
.	8ddJ	.	.
*^	*	*	*
(16.cLL	8F	16.ee-LL	8an	.
32e-JJk)	.	32ccnJJk)	.	.
*v	*v	*	*	*
*	*v	*v	*
!!LO:LB:g=original
=28	=28	=28
(>8BBB-L	4d 4b-	.
8DD	.	.
8FFJ	8r	.
8BB-L	4r	.
8D	.	.
*	*clefF4	*
*	*^	*
8EnJ	[8c#	[8B-	sf
4F/)	(8c#L]	4B-]	>
.	8d	.	.
*^	*	*	*
(16.CLL	(8FF	16.e-XL	8An	.
32E-JJk)	.	32cnJJk)	.	]
=29	=29	=29	=29	=29
(8DL	8BB-)	(8B-L	8B-	.
8.C	(4FF	8.e-	(4An	>
16E-Jk)	.	16cJk)	.	.
(8DL	8BB-)	(8B-L	8B-)	]
8.C	(4FF	8.e-	(4A	>
16E-Jk)	.	16cJk)	.	.
(8DL	8BB-L)	(8B-L	8B-)	]
16CL	8FF	16e-L	8AL	<
16BBn	.	16d	.	.
16C	8FFJ	16e-	8AJ	.
16E-JJ)	.	16cJJ)	.	.
=30	=30	=30	=30	=30
.	.	(32qBnLLL	.	.
.	.	32qc	.	.
.	.	32qdJJJ	.	.
(4.E-	[4.BB-X	(4.c)	(4.An	p
4D)	4BB-]	4B-X)	4B-X)	.
*	*	*v	*v	*
*v	*v	*	*
8r	8r	.
4r	4r	.
8r	8r	.
!!LO:LB:g=original
=31	=31	=31
(8GGG' 8GG'L	4r	pp
8GGG' 8GG'	.	.
8GGG') 8GG'J	8r	.
(8GGG' 8GG'L	4r	.
8GGG' 8GG'	.	.
8GGG') 8GG'J	8r	.
*	*clefG2	*
(8GGG' 8GG'L	(8BnL	.
.	(<c8q	.
8GGG' 8GG'	16BL)	.
.	16An	.
8GGG') 8GG'J	16B	.
.	16cJJ)	.
=32	=32	=32
(8GGG' 8GG'L	(>[4.F^ [4.A-X [4.Bn 4.c#	pp
8GGG' 8GG'	.	.
(8GGG') 8GG'J	.	.
8GGG 8GGL	4F] 4A-] 4B] 4d)	.
8GGG' 8GG'	.	.
8GGG') 8GG'J	8r	.
(8GGG' 8GG'L	8r	.
.	(<8qe	.
8GGG' 8GG'	(16dLL)	.
.	16c#	.
8GGG') 8GG'J	16d	.
.	16e-JJ)	.
=33	=33	=33
(8GGG' 8GG'L	[4.A- [4.Bn [4.d (>4.en	pp
8GGG' 8GG'	.	.
8GGG') 8GG'J	.	.
(8GGG' 8GG'L	4A-] 4B] 4d] 4f)	.
8GGG' 8GG'	.	.
8GGG') 8GG'J	8r	.
(8GGG' 8GG'L	8r	.
.	(<8qc 8qcc	.
8GGG' 8GG'	(16Bn 16bnLL)	<
.	16An 16an	.
8GGG') 8GG'J	16B 16b	.
.	16c) 16ccJJ	.
!!LO:LB:g=original
=34	=34	=34
!LO:DY:rj	!LO:DY:rj	!
8GGG 8GGLz	4.c# ((4.cc#z	.
8GG 8BBn 8D 8F	.	.
8GG 8BB 8D 8FJ	.	.
8GG 8BB 8D 8FL	8d 8dd))	.
.	(<ee-X8q	.
8GG 8BB 8D 8F	(16ddLL)	.
.	16cc#X	.
8GG 8BB 8D 8FJ	16dd	.
.	16ee-JJ	.
8GG 8BB 8D 8FL	16ffLL	.
.	16gg	.
8GG 8BB 8D 8F	16aa-X	.
.	16gg	.
8GG 8BB 8D 8FJ	16aa-	.
.	16ffJJ)	.
=35	=35	=35
*	*^	*
!LO:DY:rj	!	!	!
8CC 8Cz	(4.ff	4r	.
8C 8G 8B-XL	.	.	.
8C 8G 8B-J	.	8r	.
8C 8G 8B-L	4een)	(<8gL	.
.	.	(<8qa-	.
8C 8G 8B-	.	16gL)	.
.	.	16f#	.
8C 8G 8B-J	8raa	16g	.
.	.	16anJJ	.
8C 8G 8B-L	4raa	16b-LL	.
.	.	16cc	.
8C 8G 8B-	.	16dd-	.
.	.	16cc	.
8C 8G 8B-J	8raa	16dd-	.
.	.	16b-JJ)	.
=36	=36	=36	=36
!LO:DY:rj	!	!	!
8FF 8Fz	4rff	(4.b-	.
8F 8c 8e-XL	.	.	.
8F 8c 8e-J	8rff	.	.
8F 8c 8e-L	8ccL	4an)	.
.	(<dd-8q	.	.
8F 8c 8e-	16ccL)	.	.
.	16bn	.	.
8F 8c 8e-J	16cc	8re	.
.	16ddnJJ	.	.
8F 8c 8e-L	(16ee-XLL	4re	.
.	16ff	.	.
8F 8c 8e-	16gg-	.	.
.	16ff	.	.
8F 8c 8e-J	16gg-	8re	.
.	16ee-JJ)	.	.
!!LO:LB:g=original
=37	=37	=37	=37
!LO:DY:rj	!	!	!
8BBB-z 8BB-z	(4.ee-	4re	.
8BB- 8F 8A-XL	.	.	.
8BB- 8F 8A-J	.	8re	.
8BB- 8F 8A-L	4dd)	(<8fL	.
.	.	(<g-8q	.
8BB- 8F 8A-	.	16fL)	.
.	.	16en	.
8BB- 8F 8A-J	8rff	16f	.
.	.	16gnJJ	.
8BB- 8F 8A-L	4rff	16a-XLL	.
.	.	16b-	.
8BB- 8F 8A-	.	16cc-	.
.	.	16b-	.
8BB- 8F 8A-J	8rff	16cc-	.
.	.	16a-JJ)	.
=38	=38	=38	=38
!LO:DY:rj	!	!	!
8EE-z	4rff	(4.a-	.
8E- 8B- 8d-L	.	.	.
8E- 8B- 8d-J	8rff	.	.
8E- 8B- 8d-L	8b-L	[4.g)	.
.	(<cc-8q	.	.
8E- 8B- 8d-	16b-L)	.	.
.	16an	.	.
8E- 8B- 8d-J	16b-	.	.
.	16cc-JJ	.	<
8E- 8B- 8d-L	16dd-LL	8gL]	.
.	16ee-	.	.
8E- 8B- 8d-	16ff-	8g	.
.	16ee-	.	.
8E- 8B- 8d-J	16ff-	8gJ	.
.	16dd-JJ	.	.
!!LO:LB:g=original
=39	=39	=39	=39
!	!	!	!LO:DY:t=%s legato
4E- 4c- 4e-	16cc-LL	4a-	p
.	16dd-	.	.
.	16ee-	.	.
.	16dd-	.	.
8r	16ee-	8re	.
.	16cc-JJ	.	.
16d-LL	16b-LL	4re	.
16e-	16cc-	.	.
16f-	16dd-	.	.
16e-	16cc-	.	.
16f-	16dd-	8re	.
16d-JJ	16b-JJ	.	.
!	!LO:N:vis=4	!	!
16c-LL	8rff	16a-LL	.
16d-	.	16b-	.
*	*	*	*above
16e-	8ee-L	16cc-	<
16d-	.	16b-	.
16e-	8ee-J	16cc-	.
16c-JJ	.	16a-JJ	[
=40	=40	=40	=40
16B-LL	(4ff-^	16gLL	.
16c-	.	16a-	.
16d-	.	16b-	.
16c-	.	16a-	.
16d-	8ee-)	16b-	.
16B-JJ	.	16gJJ	.
16c-LL	4r	16a-LL	.
16d-	.	16b-	.
16e-	.	16cc-	.
16d-	.	16b-	.
16e-	8r	16cc-	.
16c-JJ	.	16a-JJ	.
16A-LL	8r	16fLL	.
16B-	.	16g-	.
16c-	8ddnL	16a-	<
16B-	.	16g-	.
16c-	8ddJ	16a-	.
16A-JJ	.	16fJJ	[
!!LO:LB:g=original
=41	=41	=41	=41
16G-LL	(4ee-	16e-LL	>
16A-	.	16f	.
16B-	.	16g-	.
16A-	.	16f	.
16B-	8b-)	16g-	]
16G-JJ	.	16e-JJ	.
16FLL	4rdd	16dnLL	.
16G-	.	16e-	.
16A-	.	16f	.
16G-	.	16e-	.
16A-	8rdd	16f	.
16FJJ	.	16dJJ	.
16G-LL	8rdd	16e-LL	.
16A-	.	16f	.
16B-	8b-L	16g-	<
16A-	.	16f	.
16B-	8b-J	16g-	[
16G-JJ	.	16e-JJ	.
=42	=42	=42	=42
16DLL	(4cc-	16fLL	>
16E-	.	16g-	.
16F	.	16a-	.
16E-	.	16g-	.
16F	8b-)	16a-	]
16DJJ	.	16fJJ	.
16E-LL	4rff	16g-LL	.
16F	.	16a-	.
16G-	.	16b-	.
16F	.	16a-	.
16G-	8rff	16b-	.
16E-JJ	.	16g-JJ	.
16CnLL	8rff	16e-LL	.
16D	.	16f	.
16E-	8anL	16g-	.
16D	.	16f	.
16E-	8aJ	16g-	.
16C-JJ	.	16e-JJ	.
!!LO:LB:g=original
=43	=43	=43	=43
*^	*	*	*
*	*	*	*	*center
16BB-LL	[2.BB-	[2.b-	16dLL	<
16Cn	.	.	16e-	.
16D	.	.	16f	.
16C	.	.	16e-	.
16BB-	.	.	16d	.
16CJJ	.	.	16e-JJ	.
16DLL	.	.	16fLL	.
16E-	.	.	16g-	.
16F	.	.	16a-	.
16E-	.	.	16g-	.
16D	.	.	16f	.
16FJJ	.	.	16a-JJ	.
16E-LL	8BB-L]	8b-L]	16g-LL	.
16D	.	.	16f	.
16C	8BB-	8an	16e-	.
16D	.	.	16f	.
16E-	8BB-J	8aJ	16g-	.
16CJJ	.	.	16e-JJ	.
=44	=44	=44	=44	=44
!	!	!	!	!LO:DY:b=2:rj
!	!	!	!	!LO:HP:b=2
16DLL	[2.BB-	[2.b-	16B-LL	p <
16E-	.	.	16c	.
16F	.	.	16d	.
16E-	.	.	16c	.
16D	.	.	16B-	.
16E-JJ	.	.	16cJJ	.
16FLL	.	.	16dLL	.
16G-	.	.	16e-	.
16A-	.	.	16f	.
16G-	.	.	16e-	.
16F	.	.	16d	.
16A-JJ	.	.	16fJJ	.
16G-LL	8BB-L]	8b-L]	16e-LL	.
16F	.	.	16d	.
16E-	8BB-	8an	16c	.
16F	.	.	16d	.
16G-	8BB-J	8aJ	16e-	.
16E-JJ	.	.	16cJJ	.
*v	*v	*	*	*
!!LO:LB:g=original
=45	=45	=45	=45
4BB- 4D 4F	4b-	16B-LL	.
.	.	16c	.
.	.	16d	.
.	.	16c#	.
8r	8rff	16d	.
.	.	16B-JJ	.
4r	4rff	16dLL	<
.	.	16en	.
.	.	16f	.
.	.	16e	.
8r	8rff	16f	.
.	.	16dJJ	.
4r	4rff	16fLL	.
.	.	16g	.
.	.	16a-	.
.	.	16g	.
8r	8rff	16a-	.
.	.	16fJJ	.
*	*v	*v	*
=46	=46	=46
8%9r	(16a-LL	pp
.	16bn	.
.	16cc	.
.	16b	.
.	16dd	.
.	16ccJJ	.
.	16b-LL	.
.	16a-	.
.	16g	.
.	16f	.
.	16en	.
.	16fJJ	.
.	16gLL	.
.	16f	.
.	16a-	.
.	16f	.
.	16c	.
.	16dJJ)	.
!!LO:LB:g=original
=47	=47	=47
8EE-L<	4e-	.
8E-' 8G' (8B-'	.	.
8E-' 8G' 8B-'J)	8r	.
8E-' 8G' (8B-'L	4r	.
8E-' 8G' 8B-'	.	.
8E-' 8G' 8B-'J)	8r	.
8E-' 8G' (8B-'L	(8gL	.
.	(<a-8q	.
8E-' 8G' 8B-'	16gL)	.
.	16f	.
8E-' 8G' 8B-'J)	16g	.
.	16a-JJ)	.
=48	=48	=48
8E- 8G 8B-L	(4.an\	.
8E- 8G 8B-	.	.
8E- 8G 8B-J	.	.
8E- 8G 8B-L	[4.b-)	.
8E- 8G 8B-	.	.
8E- 8G 8B-J	.	.
8E- 8G 8B-L	(8b-L<]	.
.	(<8qcc	.
8E- 8G 8B-	16b-L)	.
.	16an	.
8E- 8G 8B-J	16b-	.
.	16bnJJ)	.
=49	=49	=49
8D 8A- 8B-L	(4bnSsS	.
8D 8A- 8B-	.	.
8D 8A- 8B-J	16.ddLL	.
.	32ccJJk)	.
8D 8A- 8B-L	[4.f	.
8D 8A- 8B-	.	.
8D 8A- 8B-J	.	.
8D 8A- 8B-L	(8fL]	.
.	(<g8q	.
8D 8A- 8B-	16fL)	.
.	16en	.
8D 8A- 8B-J	16f	.
.	16gJJ)	.
!!LO:LB:g=original
=50	=50	=50
8D 8F 8A- 8B-L	[4.a-	.
8D 8F 8A- 8B-	.	.
8D 8F 8A- 8B-J	.	.
8D 8F 8A- 8B-L	(32a-LLL]	.
.	32g	.
.	32f	.
.	32en	<
8D 8F 8A- 8B-	32f	.
.	32g	.
.	32a-	.
.	32b-	.
8D 8F 8A- 8B-J	32cc	.
.	32dd	.
.	32ee-X	.
.	32eenJJJ	.
8D 8F 8A- 8B-L	32ffLLL	.
.	32gg	.
.	32aa-	.
.	32bb-	.
8D 8F 8A- 8B-	32ccc	.
.	32bbn	.
.	32ddd	.
.	32ccc	.
8D 8F 8A- 8B-J	32bb-	.
.	32aa-	.
.	32gg	.
.	32ffJJJ)	.
=51	=51	=51
8E- 8A- 8B-L	(4.ff#	p
8E- 8A- 8B-	.	.
8E- 8A- 8B-J	.	.
8E- 8G 8B-L	[4.gg)	.
8E- 8G 8B-	.	.
8E- 8G 8B-J	.	.
(8E-L	(16ggLL]	.
.	16e-	.
8BB-	16g	.
.	16b-	.
8AA-J)	16ee-	.
.	16ggJJ)	.
!!LO:LB:g=original
=52	=52	=52
8GGL	[4.bb-	<
8GG 8BB- 8E-	.	.
8GG 8BB- 8E-J	.	.
8GG 8BB- 8E-L	(16bb-LL]	.
.	16ff#	.
8GG 8BB- 8E-	16gg	.
.	16dd	.
8GG 8BB- 8E-J	16ee-	.
.	16anJJ	.
8GG 8BB- 8E-L	16b-LL	.
.	16f#	.
8GG 8BB- 8E-	16g	.
.	16d	.
8GG 8BB- 8E-J	16e-	.
.	16gJJ)	.
=53	=53	=53
8AA- 8C 8E-L	(8g	.
8AA- 8C 8E-	[4c)	.
8AA- 8C 8E-J	.	.
8AA- 8C 8EnL	(8c]	.
8AA- 8C 8E	[4cc)	.
8AA- 8C 8EJ	.	.
8AA- 8C 8FL	8ccL]	.
8AA- 8C 8F	(32cccLL	.
.	32bbn	.
.	32ddd	.
.	32ccc	.
8AA- 8C 8FJ	32bb-	.
.	32aa-	.
.	32gg	.
.	32ffJJJ)	.
!!LO:LB:g=original
=54	=54	=54
8BB- 8E- 8GL	(8ff	.
8BB- 8E- 8G	[4ee-)	.
8BB- 8E- 8GJ	.	.
8BB- 8E- 8GL	8ee-L]	.
8BB- 8E- 8G	(8ee-'	>
8BB- 8E- 8GJ	8ee-'J)	.
8BB- 8F 8A-L	(8ee-TL	.
.	ddq16LL	.
.	ee-q16JJ	.
8BB- 8F 8A-	8ff	.
8BB- 8F 8A-J	8ddJ)	.
=55	=55	=55
4E- 4G	(8ee-L	p
.	8b-)	.
8r	8b-'J	.
4r	(8b-L	.
.	8cc	.
8r	8a-J)	.
*^	*^	*
(4B-	4.BB-	(8gL	4e-	.
.	.	8a-	.	.
8A-)	.	8fJ)	8d	.
*	*	*v	*v	*
*v	*v	*	*
=56	=56	=56
4E- 4G	(8e-L	.
.	8B-)	.
8r	8B-'J	.
4r	(8B-TL	.
.	(<16qAnLL	.
.	16qB-JJ	.
.	8c)	.
8r	8A-XJ)	.
*	*clefF4	*
*^	*^	*
(4BB-	4.BBB-	8GtL	(4E-	.
.	.	(<Fq16LL	.	.
.	.	Gq16JJ	.	.
.	.	8A-)	.	.
8AA-)	.	8FJ	8D)	.
*v	*v	*	*	*
*	*v	*v	*
!!LO:LB:g=original
=57	=57	=57
4EE- 4GG	(8E-L	.
.	8G	.
8r	8B-J	.
*	*clefG2	*
4r	8GL	<
.	8B-	.
8r	8e-J	.
4r	8B-L	.
.	8e-	.
8r	8gJ)	[[
=58	=58	=58
(8EE-L	[4.G [4.B- [4.e- [4.g	>
8GG	.	.
8BB-J	.	.
8E-L	8G] 8B-] 8e-] 8gL]	]
8G	(>8B-'> 8e-'> 8g'>	.
8B-J)	8e-'> 8g'>J)	.
(4B-	(8e-T 8gL	.
.	(<f16qLL	.
.	g16qJJ	.
.	8f 8a-)	.
8BB- 8A-)	8B-) 8d 8fJ	.
=59	=59	=59
[4.E- (4.A-	[4.B- 4.d (>4.f	.
4E-] 4G)	4B-'] 4e-')	.
8r	8r	.
4r	(8G- 8B-L	.
.	8B- 8e-	.
8r	8e-) 8g-J	.
=60	=60	=60
*	*^	*
(8EE-L	[[4.b-	[4.g-	<
8GG-	.	.	.
8BB-J	.	.	.
8E-L	8b-LN__<	4.g-_	.
8G-	(8ee-'	.	.
8B-J	8ee-'J)	.	.
8e-L	8ee-L	8g-] 8b-LN]	.
8c-	(8ee-'	8a-	.
8B-J)	8ee-'J)	8g- 8b-J	.
!!LO:LB:g=original
=61	=61	=61	=61
!	!	!	!LO:DY:t=%s decresc.
!	!	!	!LO:HP:t= 
(4.A-	(4ee-	4.f 4.cc-	sf >
.	8dd-)	.	.
4.F	8r	8r	.
.	(8ee-L	4a- 4cc-	.
.	8dd-J)	.	.
4.G-)	8r	8r	.
.	(8ee-L	4g- 4b-	.
.	8dd-J)	.	.
=62	=62	=62	=62
(4.C-	8r	8r	.
.	(8dd-L	4e- 4a-	pp
.	8cc-J)	.	.
4.D-/	8r	8r	.
.	(8cc-L	4d- 4g-	.
.	8b-J)	.	.
4.DD-)	8r	8r	.
.	(8b-L	4c- 4f	.
.	8a-J)	.	.
=63	=63	=63	=63
!	!	!	!LO:DY:rj
(<4.DDn	4.f 4.a-	(4c-	sf >
.	.	8B-)	.
4.Dn	8rb	8rc	.
.	4f 4a-	(8c-L	.
.	.	8B-J)	.
4.E-)	8rb	8rc	.
.	4e- 4g-	(8c-L	.
.	.	8B-J)	.
*	*v	*v	*
=64	=64	=64
*^	*	*
8rc	(4.AA-	8r	.
4A- 4c-	.	(8g-L	pp
.	.	8f-J)	.
8rc	4.AAn	8r	.
4G- 4cn	.	(8f-L	.
.	.	8e-J)	.
8rA	4.BB-)	8r	.
4Fn 4A-	.	(8e-L	.
.	.	8dJ)	.
!!LO:LB:g=original
=65	=65	=65	=65
8EE-L	[2.EE-	4Gn 4e-	.
8E-	.	.	.
8E-J	.	8r	.
8E-L	.	4r	.
8E-	.	.	.
8E-J	.	8r	.
8E-L	4.EE-]	(4gg	.
8E-	.	.	.
8E-J	.	16ffLL	.
.	.	16ee-JJ)	.
=66	=66	=66	=66
*	*	*^	*
(<4f> 4a->	8E-L	(8ee-L	4r	.
.	8E-	8dd	.	.
16e-LL	8E-J	16ccL	8a-	.
16dJJ)	.	16b-JJ	.	.
(4d	8E-L	[4.b-)	[4.a-	.
.	8E-	.	.	.
16cLL	8E-J	.	.	.
16B-JJ)	.	.	.	.
(8.B-L	8E-L	(8b-L]	4.a-]	.
.	8E-	8cc	.	.
16A-L	.	.	.	.
16G	8E-J	8ddJ)	.	.
16A-JJ)	.	.	.	.
*	*	*v	*v	*
=67	=67	=67	=67
4G	8E-L	(8ee-SSsL	.
.	8E-	16ee-L	.
.	.	16ff	.
8rc	8E-J	16gg	.
.	.	16aa-JJ)	.
.	.	(<gg8q	.
4rc	8E-L	(4.bb-)	.
.	8E-	.	.
8rc	8E-J	.	.
4rc	8E-L	16aanLL	.
.	.	16bb-	.
.	8E-	16ccc	.
.	.	16bb-	.
8rc	8E-J	16aa-	.
.	.	16ggJJ)	.
!!LO:LB:g=original
=68	=68	=68	=68
*	*	*^	*
4.ryy	8E-L	(8ggL	(4a- 4cc	.
.	8E-	8ff	.	.
.	8E-J	16ee-L	16g 16b-LL	.
.	.	16ddJJ	16f 16a-JJ)	.
4ryy	8E-L	((4dd)	4f 4a-	.
.	8E-	.	.	.
(16e-LL	8E-J	16ccLL)	8a-	.
16dJJ)	.	16b-JJ)	.	.
(16dLL	8E-L	(8b-L	4.a-	.
16c	.	.	.	.
16B-	8E-	8cc	.	.
16A-	.	.	.	.
16G	8E-J	8ddJ)	.	.
16FJJ)	.	.	.	.
*v	*v	*	*	*
*	*v	*v	*
=69	=69	=69
4E-	8g' 8ee-'L	.
.	(8ff#	.
8r	8ggJ)	.
4G 4B- 4e-	8r	.
.	(8aanL	.
8r	8bb-J)	.
*clefG2	*	*
4g 4b- 4ee-	8r	.
.	(8dddL	.
8r	8eee-J)	.
=70	=70	=70
4a- 4cc 4ee-	8r	.
.	(8bbnL	.
8r	8cccJ)	.
4A- 4c 4e-	8r	.
.	(8bnL	.
8r	8ccJ)	.
4An 4c 4e-	8r	.
.	(8enL	.
8r	8fJ)	.
!!LO:LB:g=original
=71	=71	=71
*^	*	*
8B-L	2.B-	8r	.
8e- 8g	.	[4b-X	<
8e- 8gJ	.	.	.
8e- 8gL	.	(16b-LL]	.
.	.	32ccL	.
.	.	32dd	.
8e- 8g	.	32ee-	.
.	.	32ff	.
.	.	32gg	.
.	.	32aa-JJ	.
8e- 8gJ	.	[8bb-J)	sf
8d 8a-L	4.B-	(8bb-L]	>
8d 8a-	.	8aa-	.
8d 8a-J	.	8ffJ)	]]
*v	*v	*	*
=72	=72	=72
4e- 4g	[8ee-L	p
.	(32ee-LL]	.
.	32dd	.
.	32gg	.
.	32ff	.
8r	32ee-	.
.	32dd	.
.	32cc	.
.	32b-JJJ	.
4r	32anLLL	.
.	32b-	.
.	32ee-	.
.	32dd	.
.	32cc	.
.	32b-	.
.	32a-	.
.	32g	.
8r	32f#	.
.	32g	.
.	32cc	.
.	32b-JJJ	.
4r	32a-LLL	.
.	32g	.
.	32fn	.
.	32e-	.
.	32d	.
.	32e-	.
.	32a-	.
.	32g	.
8r	32f	.
.	32e-	.
.	32d	.
.	32cJJJ)	.
*clefF4	*	*
!!LO:LB:g=original
=73	=73	=73
*^	*	*
8BB-L	2.BB-	(32AnLLL	<
.	.	32B-	.
.	.	32Bn	.
.	.	32c	.
8E- 8G	.	32c#	.
.	.	32d	.
.	.	32e-	.
.	.	32en	.
8E- 8GJ	.	32f	.
.	.	32f#	.
.	.	32g	.
.	.	32a-XJJJ	.
8E- 8GL	.	32anLLL	.
.	.	32b-X	.
.	.	32bn	.
.	.	32ccn	.
8E- 8G	.	32cc#	.
.	.	32dd	.
.	.	32ee-X	.
.	.	32een	.
8E- 8GJ	.	(40ffn	.
.	.	40ff#	.
.	.	40gg	.
.	.	40aa-X	.
.	.	40aanJJJ))	.
8D 8A-L	4.BB-	[8bb-XL	sf >
8F 8A-	.	(32bb-LL]	.
.	.	32aa-	.
.	.	32ffn	.
.	.	32dd	.
8F 8A-J	.	32b-	.
.	.	32a-	.
.	.	32fn	.
.	.	32dJJJ)	]]
*v	*v	*	*
=74	=74	=74
(8E-L	4e-	p
8G	.	.
8B-J	8r	.
*clefG2	*	*
8e-L	4r	.
8g	.	.
*	*^	*
8anJ)	[8ff#	[8ee-	sf
4b-/	(8ff#]L	4ee-]	.
.	8gg	.	.
*^	*	*	*
(16.fLL	8B-	16.aa-L	8dd	.
32a-JJk)	.	32ffnJJk	.	.
*clefF4	*	*	*	*
*v	*v	*	*	*
!!LO:LB:g=original
=75	=75	=75	=75
(8EE-L	4ee-)	4g	.
8GG	.	.	.
8BB-J	8r	8ryy	.
8E-L	4r	4ryy	.
8G	.	.	.
!	!	!	!LO:DY:rj
8AnJ	[8f#	[8e-	sf >
4B-)	(8f#L]	4e-]	.
.	8g	.	.
*^	*	*	*
(16.FLL	(8BB-	16.a-L	(8d	]
32A-JJk)	.	32fnJJk)	.	.
=76	=76	=76	=76	=76
(8GL	8E-)	8e-L	8e-)	.
8.F	(4BB-	8.a-	(4d	.
16A-Jk)	.	16fJk	.	.
(8GL	8E-)	8e-L	8e-)	.
8.F	(4BB-	8.a-	(4d	.
16A-Jk)	.	16fJk	.	.
(8GL	8E-)	(8e-L	8e-)	.
*	*	*	*	*^
!	!	!	!	!LO:HP:a	!LO:HP:b=2
16FL	8BB-L	16a-L	8A-L	<	<
*	*	*	*	*v	*v
16En	.	16g	.	.
16F	8BB-J	16a-	8A-J	.
16DJJ)	.	16fJJ)	.	.
*	*	*v	*v	*
=77	=77	=77	=77
.	.	(<en32qLL	.
.	.	f32q	.
.	.	g32qJJ	.
*	*	*^	*
(4.D	[4.EE- [4.BB-	(4.f)	(4.A-	pp
4E-)	4EE-] 4BB-]	4e-)	4G)	.
*	*	*v	*v	*
*v	*v	*	*
8r	8r	.
4r	4r	.
8r	8r	.
==	==	==
*-	*-	*-
!!!RDF**kern: > = above
!!!RDF**kern: < = below
!!!RDF**kern: N = linked
!!!verovio: beamFrenchStyle
!!!LOR: Durand 1915, plates 9327/9328, Paul Dukas, ed.
!!!PED: Dukas, Paul
!!!URL-github: https://github.com/craigsapp/beethoven-piano-sonatas/blob/main/kern/sonata11-2.krn
!!!URL-vhv: https://verovio.humdrum.org/?file=beethoven/sonatas/sonata11-2.krn
!!!URL-pdf: https://github.com/craigsapp/beethoven-piano-sonatas/blob/master/reference-edition/sonata11-2.pdf
!!!ENC: Craig Stuart Sapp
!!!END: 2008/11/05
!!!EED: Craig Stuart Sapp
!!!EEV: 2022/05/07
